icon/lg/playwright.svg

<?xml version="1.0" encoding="UTF-8"?>
<svg viewBox="0 0 256 192" version="1.1" xmlns="http://www.w3.org/2000/svg" xmlns:xlink="http://www.w3.org/1999/xlink" preserveAspectRatio="xMidYMid" height="1em" width="1em">
  <g>
    <path d="M84.380258,108.351608 C74.8238495,111.063682 68.554264,115.818897 64.4242284,120.570403 C68.3799853,117.108559 73.678801,113.931495 80.8264547,111.905411 C88.1372629,109.833348 94.3742174,109.848181 99.5276772,110.842682 L99.5276772,106.812764 C95.131403,106.41081 90.0914098,106.731187 84.380258,108.351608 Z M63.9874191,74.4747851 L28.4964782,83.8250256 C28.4964782,83.8250256 29.1433119,84.7386912 30.3410148,85.9579009 L60.4328742,78.0285884 C60.4328742,78.0285884 60.0064474,83.5231896 56.3033577,88.4385921 C63.3081028,83.1390348 63.9874191,74.4747851 63.9874191,74.4747851 Z M93.6956427,157.884596 C43.750467,171.336691 17.3261001,113.45538 9.32588954,83.4126895 C5.62969676,69.5452921 4.01617216,59.042587 3.58611152,52.2649975 C3.53990911,51.561208 3.56126753,50.9679186 3.61102968,50.4243173 C1.020135,50.5807973 -0.220284754,51.9275642 0.0320857117,55.8195425 C0.462146344,62.5934239 2.07567095,73.0953873 5.77186373,86.9672344 C13.7685145,117.005475 40.1964412,174.886786 90.1418394,161.434691 C101.013125,158.506067 109.180495,153.171654 115.311399,146.362175 C109.660318,151.465947 102.587567,155.485482 93.6956427,157.884596 Z M103.081481,39.05096 L103.081481,42.605505 L122.671896,42.605505 C122.269942,41.3469899 121.865022,40.2130656 121.463068,39.05096 L103.081481,39.05096 Z" fill="#2D4552"/>
    <path d="M127.050371,68.3253408 C135.860718,70.8275387 140.520265,77.0044227 142.983157,82.4708426 L152.806546,85.2607859 C152.806546,85.2607859 151.466454,66.1294285 134.161686,61.2140261 C117.973044,56.6145502 108.010974,70.2090345 106.79918,71.9681375 C111.508414,68.6130861 118.38538,65.8661563 127.050371,68.3253408 Z M205.246652,82.5590944 C189.043177,77.9388534 179.084815,91.561519 177.890821,93.2961488 C182.603763,89.9448054 189.47702,87.1971341 198.138304,89.6674427 C206.93456,92.1733486 211.590398,98.3428165 214.060707,103.812944 L223.898186,106.61327 C223.898186,106.61327 222.536587,87.4782049 205.246652,82.5590944 Z M195.487042,133.00204 L113.768847,110.156691 C113.768847,110.156691 114.65359,114.641959 118.047947,120.44952 L186.850973,139.683961 C192.515403,136.406779 195.487042,133.00204 195.487042,133.00204 Z M138.831615,182.176088 C74.1267345,164.828307 81.9492548,82.3855573 92.419329,43.3189354 C96.7303179,27.2192868 101.162189,15.2528626 104.837617,7.23136786 C102.644671,6.77994881 100.828464,7.93508322 99.0337638,11.5850736 C95.131403,19.4998504 90.1410978,32.3868372 85.3117223,50.4272837 C74.8446146,89.4931639 67.0220942,171.932947 131.724008,189.280728 C162.221307,197.451064 185.979579,185.033518 203.690009,165.532096 C186.879154,180.758126 165.41617,189.294819 138.831615,182.176088 Z" fill="#2D4552"/>
    <path d="M103.081481,138.564869 L103.081481,121.928294 L56.8578607,135.035539 C56.8578607,135.035539 60.2734277,115.19001 84.380258,108.351608 C91.6910663,106.279545 97.9287624,106.293636 103.081481,107.288879 L103.081481,39.05096 L126.225699,39.05096 C123.705702,31.264037 121.268025,25.2688479 119.220435,21.103215 C115.833494,14.2084509 112.361268,18.7790038 104.478677,25.371932 C98.9269718,30.0099716 84.8956781,39.9045551 63.7812511,45.5942002 C42.6665273,51.2875533 25.5964056,49.7776318 18.474115,48.5443316 C8.37699735,46.8022856 3.0956837,44.5848666 3.58974542,52.2649975 C4.01973189,59.0388789 5.63333066,69.541584 9.32952344,83.4126895 C17.3261001,113.451672 43.7540267,171.332983 93.6993508,157.880888 C106.745784,154.365649 115.954377,147.417488 122.337429,138.561161 L103.081481,138.561161 L103.081481,138.564869 Z M28.4929926,83.8250256 L63.9874191,74.4747851 C63.9874191,74.4747851 62.9528708,88.12934 49.6466509,91.6371634 C36.336723,95.1412787 28.4929926,83.8250256 28.4929926,83.8250256 Z" fill="#E2574C"/>
    <path d="M236.66429,39.8400349 C227.437899,41.45749 205.303014,43.4724491 177.947925,36.140134 C150.585419,28.8122687 132.430764,15.9960317 125.237872,9.97191979 C115.041453,1.4315193 110.556185,-4.50374756 106.142112,4.47383303 C102.239751,12.3922438 97.2494461,25.2792305 92.419329,43.319677 C81.9529629,82.3855573 74.1304425,164.82534 138.831615,182.173121 C203.519438,199.50607 237.957661,124.195401 248.424769,85.1258125 C253.254886,67.0890741 255.372929,53.4308111 255.955836,44.624172 C256.62032,34.6480113 249.767828,37.544005 236.66429,39.8400349 Z M106.667915,72.1609566 C106.667915,72.1609566 116.864334,56.3023317 134.157978,61.2177341 C151.462746,66.1331366 152.802838,85.2644939 152.802838,85.2644939 L106.667915,72.1609566 Z M148.882678,143.323792 C118.463991,134.413327 113.772555,110.156691 113.772555,110.156691 L195.487042,133.002782 C195.487042,132.999073 178.992856,152.123015 148.882678,143.323792 Z M177.773646,93.4741356 C177.773646,93.4741356 187.955975,77.6266349 205.246652,82.556128 C222.536587,87.4789465 223.898186,106.610304 223.898186,106.610304 L177.773646,93.4741356 Z" fill="#2EAD33"/>
    <path d="M86.9284358,126.509229 L56.8578607,135.031831 C56.8578607,135.031831 60.1243637,116.42331 82.2763056,109.048723 L65.2489006,45.1470083 L63.777543,45.5942002 C42.6629676,51.2882949 25.5928458,49.7776318 18.4705553,48.5443316 C8.37351178,46.8030273 3.09219812,44.5848666 3.58618569,52.2657391 C4.01624632,59.0396205 5.62977092,69.541584 9.3259637,83.4134311 C17.3226145,113.451672 43.7505412,171.332983 93.6956427,157.880888 L95.1670004,157.418864 L86.9284358,126.509229 Z M28.4929926,83.8257672 L63.9874191,74.4747851 C63.9874191,74.4747851 62.9528708,88.12934 49.6466509,91.6371634 C36.3367972,95.1412787 28.4929926,83.8257672 28.4929926,83.8257672 Z" fill="#D65348"/>
    <path d="M150.25466,143.657517 L148.87897,143.32305 C118.460283,134.413327 113.768847,110.156691 113.768847,110.156691 L155.905741,121.934968 L178.214163,36.2113288 L177.944217,36.140134 C150.581711,28.8122687 132.427798,15.9960317 125.234164,9.97191979 C115.037745,1.4315193 110.552477,-4.50374756 106.138404,4.47383303 C102.239751,12.3922438 97.2494461,25.2792305 92.419329,43.319677 C81.9529629,82.3855573 74.1304425,164.82534 138.831615,182.17238 L140.157617,182.471249 L150.25466,143.657517 Z M106.667915,72.1609566 C106.667915,72.1609566 116.864334,56.3023317 134.157978,61.2177341 C151.462746,66.1331366 152.802838,85.2644939 152.802838,85.2644939 L106.667915,72.1609566 Z" fill="#1D8D22"/>
    <path d="M88.4606056,126.07242 L80.3963199,128.361034 C82.3015204,139.101055 85.6595382,149.407974 90.9301726,158.513483 C91.8475463,158.311023 92.7575039,158.136744 93.6919347,157.880888 C96.1407365,157.220112 98.4115516,156.402114 100.597823,155.509955 C94.7086843,146.770803 90.812998,136.705649 88.4606056,126.07242 Z M85.3117223,50.4280253 C81.1675961,65.8950792 77.4602791,88.1575212 78.4807368,110.48745 C80.3073265,109.694667 82.2370001,108.956022 84.380258,108.3479 L85.8731224,108.014175 C84.0532072,84.1624589 87.9874574,59.8568766 92.419329,43.319677 C93.5428707,39.1362454 94.6693789,35.2450087 95.792179,31.6163026 C93.9833881,32.767284 92.0359157,33.9471882 89.8177551,35.1626898 C88.3219243,39.7799643 86.8112612,44.826632 85.3117223,50.4280253 Z" fill="#C04B41"/>
  </g>
</svg>

<svg width="256" height="192" xmlns="http://www.w3.org/2000/svg" preserveAspectRatio="xMidYMid"><path d="M84.38 108.352c-9.556 2.712-15.826 7.467-19.956 12.218 3.956-3.461 9.255-6.639 16.402-8.665 7.311-2.072 13.548-2.057 18.702-1.062v-4.03c-4.397-.402-9.437-.082-15.148 1.539ZM63.987 74.475l-35.49 9.35s.646.914 1.844 2.133l30.092-7.93s-.427 5.495-4.13 10.41c7.005-5.299 7.684-13.963 7.684-13.963Zm29.709 83.41c-49.946 13.452-76.37-44.43-84.37-74.472-3.696-13.868-5.31-24.37-5.74-31.148a11.482 11.482 0 0 1 .025-1.84C1.021 50.58-.22 51.927.032 55.82c.43 6.773 2.044 17.275 5.74 31.147 7.997 30.038 34.424 87.92 84.37 74.468 10.871-2.929 19.038-8.263 25.17-15.073-5.652 5.104-12.724 9.123-21.616 11.523ZM103.08 39.05v3.555h19.59c-.401-1.259-.806-2.393-1.208-3.555h-18.382Z" fill="#2D4552"/><path d="M127.05 68.325c8.81 2.503 13.47 8.68 15.933 14.146l9.824 2.79s-1.34-19.132-18.645-24.047c-16.189-4.6-26.151 8.995-27.363 10.754 4.71-3.355 11.586-6.102 20.251-3.643Zm78.197 14.234c-16.204-4.62-26.162 9.003-27.356 10.737 4.713-3.351 11.586-6.099 20.247-3.629 8.797 2.506 13.452 8.676 15.923 14.146l9.837 2.8s-1.361-19.135-18.651-24.054Zm-9.76 50.443-81.718-22.845s.885 4.485 4.279 10.293l68.803 19.234c5.664-3.277 8.636-6.682 8.636-6.682Zm-56.655 49.174C74.127 164.828 81.949 82.386 92.419 43.32c4.311-16.1 8.743-28.066 12.419-36.088-2.193-.451-4.01.704-5.804 4.354C95.13 19.5 90.14 32.387 85.312 50.427c-10.467 39.066-18.29 121.506 46.412 138.854 30.497 8.17 54.256-4.247 71.966-23.749-16.81 15.226-38.274 23.763-64.858 16.644Z" fill="#2D4552"/><path d="M103.081 138.565v-16.637l-46.223 13.108s3.415-19.846 27.522-26.684c7.311-2.072 13.549-2.058 18.701-1.063V39.05h23.145c-2.52-7.787-4.958-13.782-7.006-17.948-3.387-6.895-6.859-2.324-14.741 4.269-5.552 4.638-19.583 14.533-40.698 20.222-21.114 5.694-38.185 4.184-45.307 2.95-10.097-1.742-15.378-3.96-14.884 3.721.43 6.774 2.043 17.277 5.74 31.148 7.996 30.039 34.424 87.92 84.37 74.468 13.046-3.515 22.254-10.464 28.637-19.32h-19.256v.004Zm-74.588-54.74 35.494-9.35s-1.034 13.654-14.34 17.162c-13.31 3.504-21.154-7.812-21.154-7.812Z" fill="#E2574C"/><path d="M236.664 39.84c-9.226 1.617-31.361 3.632-58.716-3.7-27.363-7.328-45.517-20.144-52.71-26.168-10.197-8.54-14.682-14.476-19.096-5.498-3.902 7.918-8.893 20.805-13.723 38.846-10.466 39.066-18.289 121.505 46.413 138.853 64.687 17.333 99.126-57.978 109.593-97.047 4.83-18.037 6.948-31.695 7.53-40.502.665-9.976-6.187-7.08-19.29-4.784ZM106.668 72.161s10.196-15.859 27.49-10.943c17.305 4.915 18.645 24.046 18.645 24.046l-46.135-13.103Zm42.215 71.163c-30.419-8.91-35.11-33.167-35.11-33.167l81.714 22.846c0-.004-16.494 19.12-46.604 10.32Zm28.89-49.85s10.183-15.847 27.474-10.918c17.29 4.923 18.651 24.054 18.651 24.054l-46.124-13.136Z" fill="#2EAD33"/><path d="m86.928 126.51-30.07 8.522s3.266-18.609 25.418-25.983L65.25 45.147l-1.471.447c-21.115 5.694-38.185 4.184-45.307 2.95-10.097-1.741-15.379-3.96-14.885 3.722.43 6.774 2.044 17.276 5.74 31.147 7.997 30.039 34.425 87.92 84.37 74.468l1.471-.462-8.239-30.91ZM28.493 83.825l35.494-9.351s-1.034 13.654-14.34 17.162c-13.31 3.504-21.154-7.811-21.154-7.811Z" fill="#D65348"/><path d="m150.255 143.658-1.376-.335c-30.419-8.91-35.11-33.166-35.11-33.166l42.137 11.778 22.308-85.724-.27-.07c-27.362-7.329-45.516-20.145-52.71-26.17-10.196-8.54-14.682-14.475-19.096-5.497-3.898 7.918-8.889 20.805-13.719 38.846-10.466 39.066-18.289 121.505 46.413 138.852l1.326.3 10.097-38.814ZM106.668 72.16s10.196-15.859 27.49-10.943c17.305 4.915 18.645 24.046 18.645 24.046l-46.135-13.103Z" fill="#1D8D22"/><path d="m88.46 126.072-8.064 2.289c1.906 10.74 5.264 21.047 10.534 30.152.918-.202 1.828-.376 2.762-.632 2.449-.66 4.72-1.479 6.906-2.371-5.89-8.74-9.785-18.804-12.137-29.438Zm-3.148-75.644c-4.144 15.467-7.852 37.73-6.831 60.06 1.826-.793 3.756-1.532 5.9-2.14l1.492-.334c-1.82-23.852 2.114-48.157 6.546-64.694a323.075 323.075 0 0 1 3.373-11.704 104.686 104.686 0 0 1-5.974 3.547 306.457 306.457 0 0 0-4.506 15.265Z" fill="#C04B41"/></svg>
